cssgg/remote.svg

<svg
  width="24"
  height="24"
  viewBox="0 0 24 24"
  fill="none"
  xmlns="http://www.w3.org/2000/svg"
>
  <path
    d="M17.0514 4.32178L18.4656 5.73599L14.223 9.97863L18.4656 14.2213L17.0514 15.6355L11.3946 9.97863L17.0514 4.32178Z"
    fill="currentColor"
  />
  <path
    d="M6.94864 19.6785L5.53442 18.2643L9.77706 14.0216L5.53442 9.77897L6.94864 8.36476L12.6055 14.0216L6.94864 19.6785Z"
    fill="currentColor"
  />
</svg>

<svg viewBox="0 0 24 24" xmlns="http://www.w3.org/2000/svg"><g><path d="M17.05 4.32l1.41 1.41 -4.25 4.24 4.24 4.24 -1.42 1.41 -5.66-5.66 5.65-5.66Z"/><path d="M6.94 19.67l-1.42-1.42L9.76 14 5.51 9.75l1.41-1.42 5.65 5.65 -5.66 5.65Z"/></g></svg>
